X: 100370
T: COBORN'S DELIGHT HORNPIPE
R: hornpipe
B: K\"ohler's Violin Repository, v.3, 1885 p.248 #1
F: http://www.archive.org/details/klersviolinrepos03rugg
Z: 2012 John Chambers <jc:trillian.mit.edu>
M: C|
L: 1/8
K: Bb
(de) |\
(3=efg (3gf_e (3cde (3edc | (AB)dB F2FE | (DF)Bd (cd)Bd | (3cdc (3BAG F2(de) |
(3=efg (3gf_e (3cde (3edc | (AB)dc (BA)GF | (eg)fe (dc)BA | B2d2 B2 :|
|: (uFE) |\
(DF)BF (dB)DF | (EG)cG e2de | (fd)Bd (cd)Bd | (3cdc (3BAG F2(FE) |
(DF)BF (dB)DF | EFGA Bcde | (fg)fe (dc)BA | B2d2 B2 :|

%%sep 2 1 500

